!!!!SEGMENT: pl-gd--ee-1638--008-011_marenzio-luca--il-quarto-libro-de-madrigalia-a-sei-voci-talche-douunque-vo.krn
!!!cenid: 15xx:873
!!!COM: Marenzio, Luca
!!!COM-rismID: pe30003955
!!!CDT: ~1553-1599/08/22
!!!CNT: Italian
!!!GTL: Il Quarto Libro de madrigalia a sei voci
!!!OTL: Talche douunque vò
!!!OMV: 011
!!!PDT: 1587
!!!AGN:
!!!SMS-siglum: PL-GD
!!!SMS-shelfmark: Ee 1638
!!!SMS-variant:
!!!SMS-altvar:
!!!SMS-shelfwork: 008-011 G
!!!NIFC-rismSourceID: 990039254
!!!NIFC-islandoraID: pl-gd:57883
!!!URL-pdf-islandora: https://repozytorium.nifc.pl/islandora/object/pl-gd%3A57883/datastream/PDF/view
!!!URL-scan: https://polish.musicsources.pl/pl/lokalizacje/galeria/klocki-introligatorskie/655 @EN{Scan on Polish Music Herritage in Open Access Website} @PL{Skany w portalu Dziedzictwo Muzyki Polskiej w otwartym dostępie}
!!!ONB-nifc: UWAGA: zbiór na stronach: Canto: s. 706-716, Alto: s. 554-564, Tenore: s. 402-412, Basso: s.250-260, Quinto: s. 98-108, Sesto: s. 16-26. Uwaga: utwory podzielone wg tytułów w spisach treści dostępnych na końcu każdej księgi głosowej.
!!!Key: G:mix
!!!AIN: 2 alto 1 bass 1 soprn 2 tenor
!!!key:
**kern	**text	**kern	**text	**kern	**text	**kern	**text	**kern	**text	**kern	**text
*part6	*part6	*part5	*part5	*part4	*part4	*part3	*part3	*part2	*part2	*part1	*part1
*staff6	*staff6	*staff5	*staff5	*staff4	*staff4	*staff3	*staff3	*staff2	*staff2	*staff1	*staff1
*I"BASSO	*	*I"TENORE	*	*I"SESTO	*	*I"ALTO	*	*I"QVINTO	*	*I"CANTO	*
*I'B.	*	*I'T.	*	*I'S.	*	*I'A.	*	*I'Q.	*	*I'C.	*
*Ibass	*	*Itenor	*	*Itenor	*	*Ialto	*	*Ialto	*	*Isoprn	*
*ICvox	*	*ICvox	*	*ICvox	*	*ICvox	*	*ICvox	*	*ICvox	*
*clefF3	*	*clefC3	*	*clefC3	*	*clefC2	*	*clefC1	*	*clefG2	*
*k[]	*	*k[]	*	*k[]	*	*k[]	*	*k[]	*	*k[]	*
*G:	*	*G:	*	*G:	*	*G:	*	*G:	*	*G:	*
*M2/1	*	*M2/1	*	*M2/1	*	*M2/1	*	*M2/1	*	*M2/1	*
=1-	=1-	=1-	=1-	=1-	=1-	=1-	=1-	=1-	=1-	=1-	=1-
!LO:TX:b:t=TAl che.	!	!	!	!LO:TX:b:t=TAl che.	!	!	!	!LO:TX:b:t=TAl che.	!	!	!
!LO:TX:a:t=Seconda parte	!	!	!	!LO:TX:a:t=Seconda parte	!	!LO:TX:a:t=Seconda parte	!	!LO:TX:a:t=Seconda parte	!	!LO:TX:a:t=Seconda parte	!
00r	.	00r	.	00r	.	2r	.	00r	.	1a	TAl
.	.	.	.	.	.	1d	TAl	.	.	.	.
.	.	.	.	.	.	.	.	.	.	1dd	che
.	.	.	.	.	.	1g\	che	.	.	.	.
=2-	=2-	=2-	=2-	=2-	=2-	=2-	=2-	=2-	=2-	=2-	=2-
.	.	.	.	.	.	.	.	.	.	2b/	dou-
.	.	.	.	.	.	4e/	dou-	.	.	2cc\	-un-
.	.	.	.	.	.	4.a\	-un	.	.	.	.
.	.	.	.	.	.	.	.	.	.	2b/	-que
.	.	.	.	.	.	8g\	.	.	.	.	.
.	.	.	.	.	.	2g\	.	.	.	.	.
.	.	.	.	.	.	.	.	.	.	2a/	vò
.	.	.	.	.	.	4f#X\	que	.	.	.	.
=3-	=3-	=3-	=3-	=3-	=3-	=3-	=3-	=3-	=3-	=3-	=3-
4r	.	4rF	.	4r	.	4g\	vò	4re	.	4re	.
4.G\	Tut-	4.B/	Tut-	4.d\	Tut-	4.b\	tut-	4.g/	Tut-	4.dd\	tut-
8D/	-te	8d\	-te	8d\	-te	8a\	-te	8f#X/	-te	8dd\	-te
4G\	re-	4B/	re-	4d\	re-	4b\	re-	4g/	re-	4dd\	re-
2C/	-pen-	2e\	-pen-	2c/	-pen-	2cc\	-pen-	2g/	-pen-	2ee\	-pen-
4C/	-te	4e\	-te	4c/	-te	4cc\	-te	4g/	-te	4ee\	-te
2F/	Par-	2c/	Par-	2A/	Par-	2cc\	Par-	2a\	Par-	2ff\	Par-
=4-	=4-	=4-	=4-	=4-	=4-	=4-	=4-	=4-	=4-	=4-	=4-
.	.	.	.	.	.	.	.	.	.	.	.
4D/	-to-	4d\	-to-	4A/	-to-	4fny\	-to-	4dd\	-to-	4ff\	-to-
4.A\	-riſ-	4.e\	-riſ-	4.c/	-riſ-	4.a\	-riſ-	4.cc\	-riſ-	4.ee\	-riſ-
!	!	!	!	!	!	!LO:SIC:v:t=custos a	!	!LO:SIC:v:t=custos cc	!	!	!
8A\	-ſe-	8e\	-ſe-	8c/	-ſe-	8a\	-ſe-	8cc\	-ſe-	8ee\	-ſe-
!	!	!	!	!	!	!	!	!	!	!LO:SIC:v:t=custos ee	!
!	!	!	!	!	!	!	!	!LO:LB:g=original	!	!	!
!	!	!	!	!	!	!LO:LB:g=original	!	!	!	!	!
4A\	ro A-	1e	ro A-	4A/	ro A-	4a\	ro A-	4cc\	ro A-	2ee\	ro A-
2E/	-mor	.	.	4B/	-mor	2g#X\	-mor	2b\	-mor	.	.
!	!	!	!	!	!	!	!	!	!	!LO:LB:g=original	!
.	.	.	.	4.e\	l'on-	.	.	.	.	1ee\	-mor
4.A\	l'on-	.	.	.	.	2a\	l'on-	4.cc\	l'on-	.	.
!	!	!	!	!LO:SIC:v:t=custos c	!	!	!	!	!	!	!
.	.	.	.	8d\	.	.	.	.	.	.	.
=5-	=5-	=5-	=5-	=5-	=5-	=5-	=5-	=5-	=5-	=5-	=5-
!	!	!	!	!LO:LB:g=original	!	!	!	!	!	!	!
.	.	2A/	-mor	8c\	.	.	.	.	.	.	.
!LO:SIC:v:t=custos c	!	!	!	!	!	!	!	!	!	!	!
8B\	.	.	.	8B/	.	.	.	8dd\	.	.	.
!LO:LB:g=original	!	!	!	!	!	!	!	!	!	!	!
8c\	.	.	.	8A/	.	4a\	-de	8ee\	.	.	.
8B\	.	.	.	8B/	.	.	.	8dd\	.	.	.
8A\	.	4.f\	l'on-	4c/	.	2r	.	8cc\	.	4re	.
8G\	.	.	.	.	.	.	.	8b\	.	.	.
8F\	.	.	.	4c/	-de	.	.	8a\	.	4.ff\	l'on
!	!	!LO:SIC:v:t=custos a	!	!	!	!	!	!	!	!	!
8E/	.	8g\	.	.	.	.	.	8g/	.	.	.
!	!	!LO:LB:g=original	!	!	!	!	!	!	!	!	!
2D/	.	8a\	.	1r	.	4rg	.	4fny/	.	.	.
.	.	8g\	.	.	.	.	.	.	.	8gg\	.
.	.	8f\	.	.	.	4.a\	l'on-	4d/	-de	8aa\	.
.	.	8e\	.	.	.	.	.	.	.	8gg\	.
2D/	-de	4d\	.	.	.	.	.	2r	.	8ff\	.
.	.	.	.	.	.	8gny\	.	.	.	8ee\	.
.	.	4A/	-de	.	.	8f\	.	.	.	8dd\	.
.	.	.	.	.	.	8e\	.	.	.	8cc\	.
=6-	=6-	=6-	=6-	=6-	=6-	=6-	=6-	=6-	=6-	=6-	=6-
2G\	ch'io	2B/	ch'io	4r	.	2d/	.	1r	.	2b/	.
.	.	.	.	2d\	ch'io	.	.	.	.	.	.
2C/	fran-	2e\	fran-	.	.	2g\	-de	.	.	2cc\	de
.	.	.	.	2c/	fran-	.	.	.	.	.	.
2G\	-go	2d\	-go	.	.	2g\	ch'io	4re	.	2dd\	ch'io
.	.	.	.	4B/	-go	.	.	2dd\	ch'io	.	.
2r	.	2r	.	2r	.	2c/	fran-	.	.	2ee\	fran-
.	.	.	.	.	.	.	.	2cc\	fran-	.	.
=7-	=7-	=7-	=7-	=7-	=7-	=7-	=7-	=7-	=7-	=7-	=7-
2G\	ch'io	4rF	.	4r	.	1.g	-go	.	.	2dd\	-go
.	.	4B/	ch'io	2d\	ch'io	.	.	4b\	-go	.	.
2C/	fran-	2e\	fran-	.	.	.	.	2r	.	2r	.
.	.	.	.	2c/	fran-	.	.	.	.	.	.
2G\	-go	2d\	-go	.	.	.	.	1r	.	1r	.
.	.	.	.	4B/	-go	.	.	.	.	.	.
2r	.	2r	.	2r	.	2r	.	.	.	.	.
=8-	=8-	=8-	=8-	=8-	=8-	=8-	=8-	=8-	=8-	=8-	=8-
00r	.	1c	E	00r	.	1e	E	1g	E	1cc	E
.	.	2.c/	foſ-	.	.	2.e/	foſ-	2.g/	foſ-	2.cc\	foſ-
.	.	4c/	-ſer	.	.	4e/	-ſer	4g/	-ſer	4cc\	-ſer
=9-	=9-	=9-	=9-	=9-	=9-	=9-	=9-	=9-	=9-	=9-	=9-
.	.	2A/	le	.	.	2e/	le	2a\	le	2cc\	le
!	!	!	!	!	!	!	!	!LO:SIC:v:t=custos cc	!	!	!
.	.	2G/	lor-	.	.	2g\	lor	2b\	lor	2dd\	lor
!	!	!	!	!	!	!	!	!LO:LB:g=original	!	!	!
.	.	4c/	-cu-	.	.	1.g	cu-	1.cc	cu-	4ee\	cu-
!	!	!	!	!	!	!	!	!	!	!LO:SIC:v:t=custos gg	!
.	.	4d\	.	.	.	.	.	.	.	4ff\	.
!	!	!	!	!	!	!	!	!	!	!LO:LB:g=original	!
.	.	4e\	.	.	.	.	.	.	.	4gg\	.
!	!	!LO:SIC:v:t=custos c	!	!	!	!	!	!	!	!	!
.	.	4d\	.	.	.	.	.	.	.	4ff\	.
=10-	=10-	=10-	=10-	=10-	=10-	=10-	=10-	=10-	=10-	=10-	=10-
!	!	!LO:LB:g=original	!	!	!	!	!	!	!	!	!
0r	.	2c/	.	0r	.	.	.	.	.	2ee\	.
.	.	4A/	ne i	.	.	4a\	ne i	4cc#X\	ne i	4ee\	ne i
.	.	2d\	pen-	.	.	2a\	pen-	4.dd\	pen-	2ff\	pen-
.	.	.	.	.	.	.	.	8d/	-ſier	.	.
!	!	!	!	!	!	!LO:SIC:v:t=custos d	!	!	!	!	!
.	.	4c/	-ſier	.	.	4A/	-ſier	2a\	mie-	4ee\	-ſier
!	!	!	!	!	!	!LO:LB:g=original	!	!	!	!	!
.	.	2B-X/	mie-	.	.	2d/	mie-	.	.	2dd\	mie-
.	.	.	.	.	.	.	.	4g/	.	.	.
=11-	=11-	=11-	=11-	=11-	=11-	=11-	=11-	=11-	=11-	=11-	=11-
2r	.	1A	-i	4r	.	2e/	-i	1a	-i	1cc#X	-i
.	.	.	.	4e\	Non	.	.	.	.	.	.
4r	.	.	.	4.a\	ar-	4rg	.	.	.	.	.
4A\	Non	.	.	.	.	4e/	Non	.	.	.	.
.	.	.	.	8a\	-de-	.	.	.	.	.	.
4.d\	ar-	1r	.	4a\	-ria	4.f\	ar-	4re	.	1r	.
!	!	!	!	!LO:SIC:v:t=custos a	!	!	!	!	!	!	!
.	.	.	.	4a\	più	.	.	4a\	Non	.	.
8d\	-de-	.	.	.	.	8f\	-de-	.	.	.	.
!	!	!	!	!LO:LB:g=original	!	!	!	!	!	!	!
4d\	-ria	.	.	2.a\	ch'ar-	4f\	-ria	4.dd\	ar-	.	.
!LO:SIC:v:t=custos d	!	!	!	!	!	!	!	!	!	!	!
4d\	più	.	.	.	.	4f\	più	.	.	.	.
.	.	.	.	.	.	.	.	8dd\	-de-	.	.
=12-	=12-	=12-	=12-	=12-	=12-	=12-	=12-	=12-	=12-	=12-	=12-
!LO:LB:g=original	!	!	!	!	!	!	!	!	!	!	!
2.d\	ch'ar-	0r	.	.	.	2f\	ch'ar-	4dd\	-ria	1r	.
.	.	.	.	4g\	-de	.	.	4dd\	più	.	.
.	.	.	.	4f\	queſ-	4d/	-de	2.dd\	ch'ar-	.	.
4c\	-de	.	.	4e\	-ta	2g\	queſ-	.	.	.	.
4B\	queſ-	.	.	2d\	men-	.	.	.	.	2r	.
4A\	-ta	.	.	.	.	4a\	-ta	4ccny\	-de	.	.
1G\	men-	.	.	2g\	-te	2d/	men-	4b\	queſ-	2dd\	Non
.	.	.	.	.	.	.	.	4a\	-ta	.	.
=13-	=13-	=13-	=13-	=13-	=13-	=13-	=13-	=13-	=13-	=13-	=13-
.	.	2d\	Non	2r	.	2B/	-te	2g/	men-	4.gg\	ar-
.	.	.	.	.	.	.	.	.	.	8gg\	-de-
4C/	-te	4.g\	ar-	4r	.	2r	.	4e/	-te	4gg\	-ria
!	!	!	!	!	!	!	!	!LO:SIC:v:t=custos ee	!	!	!
4C/	Non	.	.	4g\	Non	.	.	4e/	Non	4gg\	più
.	.	8g\	-de-	.	.	.	.	.	.	.	.
!	!	!	!	!	!	!	!	!LO:LB:g=original	!	!	!
4.c\	ar-	4g\	-ria	4.e\	ar-	1r	.	4.ee\	ar-	2.gg\	ch'ar-
.	.	4g\	più	.	.	.	.	.	.	.	.
8c\	-de-	.	.	8e\	-de-	.	.	8ee\	-de-	.	.
2c\	-ria	2.g\	ch'ar-	1e\	-ria	.	.	2ee\	-ria	.	.
.	.	.	.	.	.	.	.	.	.	4ff\	-de
=14-	=14-	=14-	=14-	=14-	=14-	=14-	=14-	=14-	=14-	=14-	=14-
2c\	più	.	.	.	.	2g\	Non	1cc	piu	4ee\	queſ-
.	.	4f\	-de	.	.	.	.	.	.	4dd\	-ta
4c\	ch'ar-	4e\	queſ-	2e\	piu	4.g\	ar-	.	.	2ccny\	men-
4B\	-de	4d\	-ta	.	.	.	.	.	.	.	.
.	.	.	.	.	.	8g\	-de-	.	.	.	.
!	!	!	!	!	!	!	!	!	!	!LO:SIC:v:t=custos ee	!
4A\	queſ-	1c	men-	4f\	ch'ar-	4a\	-ria	4cc\	ch'ar-	0cc	-te
4G\	-ta	.	.	4g\	-de	4b\	piu	4b\	-de	.	.
1F\	men-	.	.	4a\	queſ-	4cc\	ch'ar-	4a\	queſ-	.	.
!	!	!	!	!	!	!LO:SIC:v:t=custos a	!	!	!	!	!
.	.	.	.	4g\	-ta	4b\	-de	4b\	-ta	.	.
=15-	=15-	=15-	=15-	=15-	=15-	=15-	=15-	=15-	=15-	=15-	=15-
!	!	!	!	!	!	!LO:LB:g=original	!	!	!	!	!
.	.	0c	-te	2f\	men-	4a\	queſ-	2cc\	men-	.	.
.	.	.	.	.	.	4g\	-ta	.	.	.	.
2F/	-te	.	.	2c/	-te	1f	men-	2a\	-te	.	.
1C	Con	.	.	2r	.	.	.	2r	.	2r	.
!	!	!	!	!LO:SIC:v:t=custos e	!	!	!	!	!	!	!
!	!	!	!	!	!	!	!	!	!	!LO:LB:g=original	!
.	.	.	.	1c\	Con	2e/	-te	2g/	Con	1ee\	Con
=16-	=16-	=16-	=16-	=16-	=16-	=16-	=16-	=16-	=16-	=16-	=16-
1.C	tut-	0r	.	.	.	2r	.	1g	tut-	.	.
!	!	!	!	!LO:LB:g=original	!	!	!	!	!	!	!
.	.	.	.	1e	tut-	2cc\	Con	.	.	1gg	tut-
.	.	.	.	.	.	2.a\	tut-	1cc	-to	.	.
!LO:SIC:v:t=custos E	!	!	!	!	!	!	!	!	!	!	!
2D/	-to	.	.	2A/	-to	.	.	.	.	2ff\	-to
.	.	.	.	.	.	4a\	-to	.	.	.	.
=17-	=17-	=17-	=17-	=17-	=17-	=17-	=17-	=17-	=17-	=17-	=17-
!LO:LB:g=original	!	!	!	!	!	!	!	!	!	!	!
1E	ciò	1r	.	1e	ciò	1g#X	ciò	1b	ciò	1ee	ciò
4E/	tal'-	4e\	tal-	4B/	tal-	4g#\	tal-	1r	.	1r	.
2E/	-hor	2e\	-hor	2B/	-hor	2g#\	-hor	.	.	.	.
!	!	!LO:SIC:v:t=custos g	!	!	!	!	!	!	!	!	!
4A\	mi	4e\	mi	4c/	mi	4a\	mi	.	.	.	.
=18-	=18-	=18-	=18-	=18-	=18-	=18-	=18-	=18-	=18-	=18-	=18-
!	!	!LO:LB:g=original	!	!	!	!	!	!	!	!	!
2G\	do-	2g\	do-	1.d	do-	1.b	do-	1dd	mi	0r	.
2F/	glio e	2d\	glio e	.	.	.	.	.	.	.	.
0E	pian-	0e	pian-	.	.	.	.	2g/	do-	.	.
.	.	.	.	2c/	glio e	2a\	glio e	2a\	glio e	.	.
=19-	=19-	=19-	=19-	=19-	=19-	=19-	=19-	=19-	=19-	=19-	=19-
.	.	.	.	1B	pian-	1g#X	pian-	1b	pian-	1r	.
!	!	!	!	!	!	!	!	!LO:SIC:v:t=custos a	!	!	!
1E	-go	1.e	-go	1B	-go	1g#	-go	1b	-go	2r	.
.	.	.	.	.	.	.	.	.	.	4re	.
.	.	.	.	.	.	.	.	.	.	4ee\	Che
=20-	=20-	=20-	=20-	=20-	=20-	=20-	=20-	=20-	=20-	=20-	=20-
2A\	Che	.	.	4r	.	2a\	Che	0r	.	4.cc\	non
.	.	.	.	4e\	Che	.	.	.	.	.	.
.	.	.	.	.	.	.	.	.	.	8dd\	vi
4A\	non	4rF	.	4.c/	non	4a\	non	.	.	4ee\	poſ-
4A\	vi	4A/	Che	.	.	4a\	vi	.	.	4ff\	ſo a-
.	.	.	.	8d\	vi	.	.	.	.	.	.
2.A\	poſ-	4.c/	non	4e\	poſ-	4.a\	poſ-	.	.	4ee\	-mar
.	.	.	.	4f\	ſo a-	.	.	.	.	4.aa\	quan-
!	!	!	!	!	!	!LO:SIC:v:t=custos cc	!	!	!	!	!
.	.	8d\	vi	.	.	8b\	.	.	.	.	.
.	.	4e\	poſ-	4e\	-mar	4cc\	.	.	.	.	.
.	.	.	.	.	.	.	.	.	.	8gg\	-to
4D/	ſo a-	4d\	ſo a-	4.a\	quan-	4f\	ſo a-	.	.	4ff\	vor-
=21-	=21-	=21-	=21-	=21-	=21-	=21-	=21-	=21-	=21-	=21-	=21-
1A	-mar	4c#X/	-mar	.	.	2a\	-mar	2r	.	4ee\	-re-
.	.	.	.	8g\	-to	.	.	.	.	.	.
.	.	4.a\	quan-	4f\	vor-	.	.	.	.	2dd\	.
!	!	!	!	!LO:SIC:v:t=custos d	!	!	!	!	!	!	!
.	.	.	.	2e\	-re-	2r	.	4re	.	.	.
.	.	8g\	-to	.	.	.	.	.	.	.	.
!	!	!	!	!	!	!	!	!LO:LB:g=original	!	!	!
.	.	4e\	vor-	.	.	.	.	4a\	Che	4cc#X\	.
!	!	!	!	!	!	!	!	!	!	!LO:SIC:v:t=custos ff	!
!	!	!	!	!LO:LB:g=original	!	!	!	!	!	!	!
1r	.	2a\	-re-	0.d	-i	4rg	.	4.f/	non	1dd	-i
.	.	.	.	.	.	4a\	Che	.	.	.	.
.	.	.	.	.	.	.	.	8g/	vi	.	.
.	.	2d\	-i	.	.	4.f\	non	4a\	poſ-	.	.
.	.	.	.	.	.	.	.	4b-X\	ſo a-	.	.
.	.	.	.	.	.	8gny\	vi	.	.	.	.
=22-	=22-	=22-	=22-	=22-	=22-	=22-	=22-	=22-	=22-	=22-	=22-
!	!	!	!	!	!	!	!	!	!	!LO:LB:g=original	!
0r	.	1r	.	.	.	4a\	poſ-	4a\	-mar	2ff\	quan-
.	.	.	.	.	.	4b-X\	ſo a-	4.dd\	quan-	.	.
.	.	.	.	.	.	4a\	-mar	.	.	2.ff\	-to
.	.	.	.	.	.	.	.	8cc\	-to	.	.
.	.	.	.	.	.	4.dd\	quan-	4bny\	vor-	.	.
.	.	2r	.	.	.	.	.	4a\	-re-	.	.
.	.	.	.	.	.	8cc\	-to	.	.	.	.
.	.	.	.	.	.	4b-\	vor-	2g/	.	4dd\	vor-
.	.	4rF	.	.	.	2a\	-re-	.	.	4dd\	-re-
.	.	4d\	Che	.	.	.	.	4f#X/	.	4a/	-i
=23-	=23-	=23-	=23-	=23-	=23-	=23-	=23-	=23-	=23-	=23-	=23-
2G\	Che	4.Bny/	non	0r	.	2g\	-i	0.g	-i	4re	.
.	.	.	.	.	.	.	.	.	.	4dd\	Che
!	!	!LO:SIC:v:t=custos d	!	!	!	!	!	!	!	!	!
.	.	8cny/	vi	.	.	.	.	.	.	.	.
!	!	!LO:LB:g=original	!	!	!	!	!	!	!	!	!
4G\	no(n)	4d\	poſ-	.	.	4rg	.	.	.	4.b/	non
4G\	vi	4e\	ſo a-	.	.	4G/	Che	.	.	.	.
.	.	.	.	.	.	.	.	.	.	8ccny\	vi
2.G\	poſ-	4d\	-mar	.	.	2.B/	non	.	.	4dd\	poſ-
.	.	4.g\	quan-	.	.	.	.	.	.	4ee\	ſo a-
.	.	.	.	.	.	.	.	.	.	4dd\	-mar
.	.	8f\	-to	.	.	.	.	.	.	.	.
!LO:SIC:v:t=custos G	!	!	!	!	!	!	!	!	!	!	!
4C/	ſo a-	4e\	vor-	.	.	4c/	ui	.	.	4.gg\	quan-
=24-	=24-	=24-	=24-	=24-	=24-	=24-	=24-	=24-	=24-	=24-	=24-
!LO:LB:g=original	!	!	!	!	!	!	!	!	!	!	!
1G	-mar	4d\	-re-	2r	.	4B/	poſ-	.	.	.	.
.	.	.	.	.	.	.	.	.	.	8ff\	-to
.	.	2c/	.	.	.	4c/	ſo a-	.	.	4ee\	vor-
!	!	!	!	!	!	!LO:SIC:v:t=custos g	!	!	!	!	!
.	.	.	.	2d\	quan-	2d/	-mar	.	.	2dd\	-re-
.	.	4B/	.	.	.	.	.	.	.	.	.
2C/	quan-	2c/	-i	2e\	-to	4rg	.	2r	.	1cc	-i
!	!	!	!	!	!	!LO:LB:g=original	!	!	!	!	!
.	.	.	.	.	.	4.g\	quan-	.	.	.	.
4C/	-to	4rF	.	2e\	vor-	.	.	2cc\	quan-	.	.
.	.	.	.	.	.	8g\	-to	.	.	.	.
4C/	vor-	4.c/	quan-	.	.	4a\	vor-	.	.	.	.
=25-	=25-	=25-	=25-	=25-	=25-	=25-	=25-	=25-	=25-	=25-	=25-
!	!	!	!	!	!	!	!	!	!	!LO:TX:b:t=.	!
1D	-re-	.	.	1d	-re-	4f#X\	-re-	4a\	-to	0r	.
.	.	8c/	-to	.	.	.	.	.	.	.	.
.	.	4B/	vor-	.	.	2g\	.	4g/	vor-	.	.
.	.	2A/	-re-	.	.	.	.	2a\	-rei	.	.
.	.	.	.	.	.	4f#X\	.	.	.	.	.
!	!	!	!	!	!	!	!	!LO:SIC:v:t=custos g	!	!	!
1G	-i	1G	-i	1d	-i	0g	-i	1b	.	.	.
=26-	=26-	=26-	=26-	=26-	=26-	=26-	=26-	=26-	=26-	=26-	=26-
1C	Con	2r	.	00r	.	.	.	2r	.	2r	.
!	!	!	!	!	!	!	!	!LO:LB:g=original	!	!	!
.	.	1c	Con	.	.	.	.	2g/	Con	1ee	Con
1.C	tut-	.	.	.	.	2r	.	1g	tut-	.	.
.	.	1e\	tut-	.	.	2cc\	Con	.	.	1gg\	tut-
=27-	=27-	=27-	=27-	=27-	=27-	=27-	=27-	=27-	=27-	=27-	=27-
.	.	.	.	.	.	2.a\	tut-	1cc	-to	.	.
!	!	!	!	!	!	!	!	!	!	!LO:SIC:v:t=custos ee	!
2D/	-to	2A/	-to	.	.	.	.	.	.	2ff\	-to
.	.	.	.	.	.	4a\	-to	.	.	.	.
!	!	!	!	!	!	!	!	!	!	!LO:LB:g=original	!
1E	ciò	1e	ciò	.	.	1g#X	ciò	1b	ciò	1ee	ciò
=28-	=28-	=28-	=28-	=28-	=28-	=28-	=28-	=28-	=28-	=28-	=28-
00r	.	4e\	tal-	00r	.	4g#X\	tal-	4b\	tal-	00r	.
.	.	2e\	-hor	.	.	2g#\	-hor	2b\	-hor	.	.
!	!	!LO:SIC:v:t=custos g	!	!	!	!	!	!	!	!	!
.	.	4a\	mi	.	.	4a\	mi	4cc\	mi	.	.
!	!	!LO:LB:g=original	!	!	!	!	!	!	!	!	!
.	.	2g\	do-	.	.	1.bny	do-	1.dd	do-	.	.
.	.	2f\	glio e	.	.	.	.	.	.	.	.
=29-	=29-	=29-	=29-	=29-	=29-	=29-	=29-	=29-	=29-	=29-	=29-
.	.	0e	pian-	.	.	.	.	.	.	.	.
.	.	.	.	.	.	2a\	glio e	2cc\	glio e	.	.
.	.	.	.	.	.	1g#X	pia(n)-	1b	pian-	.	.
=30-	=30-	=30-	=30-	=30-	=30-	=30-	=30-	=30-	=30-	=30-	=30-
1r	.	1.e	-go	1r	.	1g#X	-go	1b	-go	2r	.
.	.	.	.	.	.	.	.	.	.	4re	.
.	.	.	.	.	.	.	.	.	.	4ee\	Che
2A\	Che	.	.	4r	.	2a\	Che	1r	.	4.cc\	non
.	.	.	.	4e\	Che	.	.	.	.	.	.
.	.	.	.	.	.	.	.	.	.	8dd\	vi
4A\	non	4rF	.	4.c/	non	4a\	no(n)	.	.	4ee\	poſ-
!	!	!	!	!	!	!LO:SIC:v:t=custos a	!	!	!	!	!
4A\	vi	4A/	Che	.	.	4a\	vi	.	.	4ff\	ſo a-
.	.	.	.	8d\	vi	.	.	.	.	.	.
=31-	=31-	=31-	=31-	=31-	=31-	=31-	=31-	=31-	=31-	=31-	=31-
!	!	!	!	!	!	!LO:LB:g=original	!	!	!	!	!
2.A\	poſ-	4.c/	non	4e\	poſ-	4.a\	poſ-	1r	.	4ee\	-mar
.	.	.	.	4f\	-s'a-	.	.	.	.	4.aa\	qua(n)-
.	.	8d\	vi	.	.	8b\	.	.	.	.	.
.	.	4e\	poſ-	4e\	-mar	4cc\	.	.	.	.	.
.	.	.	.	.	.	.	.	.	.	8gg\	-to
4D/	ſo a-	4d\	ſo a-	4.a\	quan-	4fny\	vo a-	.	.	4ff\	vor-
!LO:SIC:v:t=custos G	!	!	!	!	!	!	!	!	!	!	!
1A	-mar	4c#X/	-mar	.	.	2a\	-mar	2r	.	4ee\	-rri
.	.	.	.	8g\	-to	.	.	.	.	.	.
.	.	4.a\	qua(n)-	4f\	vor-	.	.	.	.	2dd\	.
.	.	.	.	2e\	-re-	2r	.	4re	.	.	.
.	.	8g\	-to	.	.	.	.	.	.	.	.
.	.	4e\	vor-	.	.	.	.	4a\	Che	4cc#X\	.
=32-	=32-	=32-	=32-	=32-	=32-	=32-	=32-	=32-	=32-	=32-	=32-
!	!	!	!	!LO:SIC:v:t=custos G	!	!	!	!	!	!	!
0r	.	2a\	-re-	0.d	-i	4rg	.	4.fny/	no(n)	1dd	i
.	.	.	.	.	.	4a\	Che	.	.	.	.
.	.	.	.	.	.	.	.	8g/	vi	.	.
.	.	2d\	-i	.	.	4.f\	non	4a\	poſ-	.	.
.	.	.	.	.	.	.	.	4b-X\	s(o) a-	.	.
.	.	.	.	.	.	8gny\	vi	.	.	.	.
.	.	1r	.	.	.	4a\	poſ-	4a\	-mar	2ff\	quan-
.	.	.	.	.	.	4b-X\	ſo a-	4.dd\	qua(n)-	.	.
.	.	.	.	.	.	4a\	-mar	.	.	2.ff\	-to
.	.	.	.	.	.	.	.	8cc\	-to	.	.
!	!	!	!	!	!	!	!	!LO:SIC:v:t=custos a	!	!	!
.	.	.	.	.	.	4.dd\	quan-	4bny\	vor-	.	.
=33-	=33-	=33-	=33-	=33-	=33-	=33-	=33-	=33-	=33-	=33-	=33-
!	!	!	!	!	!	!	!	!LO:LB:g=original	!	!	!
1r	.	2r	.	.	.	.	.	4a\	-re-	.	.
.	.	.	.	.	.	8cc\	-to	.	.	.	.
.	.	.	.	.	.	4bny\	vor-	2g/	.	4dd\	vor-
.	.	4rF	.	.	.	2a\	-re-	.	.	4dd\	-rei
!	!	!	!	!	!	!	!	!	!	!LO:SIC:v:t=custos dd	!
.	.	4d\	Che	.	.	.	.	4f#X/	.	4a/	.
!LO:LB:g=original	!	!	!	!	!	!	!	!	!	!	!
2G\	Che	4.B/	non	2r	.	2b\	-i	0.g	-i	4re	.
!	!	!	!	!	!	!	!	!	!	!LO:LB:g=original	!
.	.	.	.	.	.	.	.	.	.	4dd\	Che
.	.	8cny/	vi	.	.	.	.	.	.	.	.
!	!	!	!	!LO:LB:g=original	!	!	!	!	!	!	!
4G\	non	4d\	poſ-	2G/	Che	2r	.	.	.	4.b/	non
!	!	!LO:SIC:v:t=custos d	!	!	!	!	!	!	!	!	!
4G\	vi	4e\	ſo a-	.	.	.	.	.	.	.	.
.	.	.	.	.	.	.	.	.	.	8ccny\	vi
=34-	=34-	=34-	=34-	=34-	=34-	=34-	=34-	=34-	=34-	=34-	=34-
2.G\	poſ-	4d\	-mar	2.B/	non	1r	.	.	.	4dd\	poſ-
.	.	4.g\	quan-	.	.	.	.	.	.	4ee\	ſo a-
.	.	.	.	.	.	.	.	.	.	4dd\	-mar
.	.	8f\	-to	.	.	.	.	.	.	.	.
4C/	ſo a-	4e\	vor-	4c/	vi	.	.	.	.	4.gg\	quan-
1G	-mar	4d\	-re-	4B/	poſ-	2r	.	.	.	.	.
.	.	.	.	.	.	.	.	.	.	8ff\	-to
.	.	2c/	.	4c/	ſo a-	.	.	.	.	4ee\	vor-
.	.	.	.	2d\	-mar	4rg	.	.	.	2dd\	-rei
.	.	4B/	.	.	.	4g\	Che	.	.	.	.
=35-	=35-	=35-	=35-	=35-	=35-	=35-	=35-	=35-	=35-	=35-	=35-
1C	quan-	0c	-i	4r	.	4.e/	non	0r	.	2cc\	.
.	.	.	.	4G/	Che	.	.	.	.	.	.
!	!	!	!	!	!	!LO:SIC:v:t=custos g	!	!	!	!	!
.	.	.	.	.	.	8f\	vi	.	.	.	.
!	!	!	!	!	!	!LO:LB:g=original	!	!	!	!	!
.	.	.	.	4.E/	non	4g\	poſ-	.	.	4re	.
.	.	.	.	.	.	4a\	ſo a-	.	.	4cc\	Che
.	.	.	.	8F/	vi	.	.	.	.	.	.
1C	-to	.	.	4G/	poſ-	4g\	-mar	.	.	2.ee\	non
.	.	.	.	4A/	ſo a-	4.cc\	quan-	.	.	.	.
.	.	.	.	4G/	-mar	.	.	.	.	.	.
.	.	.	.	.	.	8b\	-to	.	.	.	.
.	.	.	.	4.c/	quan-	4a\	vor-	.	.	4ee\	vi
=36-	=36-	=36-	=36-	=36-	=36-	=36-	=36-	=36-	=36-	=36-	=36-
1C	vor-	1r	.	.	.	4g\	-re-	1r	.	4ee\	poſ-
.	.	.	.	8B/	-to	.	.	.	.	.	.
.	.	.	.	4A/	vor-	2f\	.	.	.	4ff\	ſo a-
.	.	.	.	2G/	-re-	.	.	.	.	2gg\	-mar
.	.	.	.	.	.	4e/	.	.	.	.	.
!	!	!	!	!	!	!	!	!	!	!LO:SIC:v:t=custos dd	!
00D	-re-	2r	.	4.F/	-i	4.f\	-i	4re	.	1dd	quan-
.	.	.	.	.	.	.	.	4a\	Che	.	.
.	.	.	.	8G/	.	8e/	.	.	.	.	.
!	!	!	!	!LO:SIC:v:t=custos d	!	!	!	!	!	!	!
.	.	4rF	.	2A/	.	2d/	.	4.fny/	non	.	.
.	.	4A/	Che	.	.	.	.	.	.	.	.
.	.	.	.	.	.	.	.	8g/	vi	.	.
=37-	=37-	=37-	=37-	=37-	=37-	=37-	=37-	=37-	=37-	=37-	=37-
!	!	!	!	!	!	!	!	!	!	!LO:LB:g=original	!
!	!	!	!	!LO:LB:g=original	!	!	!	!	!	!	!
.	.	4.F/	non	1d	quan-	2r	.	4a\	poſ-	2dd\	-to
.	.	.	.	.	.	.	.	4b-X\	ſo a-	.	.
.	.	8G/	vi	.	.	.	.	.	.	.	.
.	.	4A/	poſ-	.	.	1f	quan-	4a\	-mar	2dd\	vor-
.	.	4B-X/	ſo a-	.	.	.	.	4.dd\	quan-	.	.
.	.	4A/	-mar	2d\	-to	.	.	.	.	0dd	-re-
.	.	.	.	.	.	.	.	8cc\	-to	.	.
.	.	4.d\	quan-	.	.	.	.	4b-\	vor-	.	.
.	.	.	.	2d\	uor-	4f#X\	-to	4a\	-re-	.	.
.	.	8c/	-to	.	.	.	.	.	.	.	.
.	.	4B-/	vor-	.	.	4g\	vor-	2g/	.	.	.
=38-	=38-	=38-	=38-	=38-	=38-	=38-	=38-	=38-	=38-	=38-	=38-
.	.	1A	-re-	1d	-re-	1a	-re-	.	.	.	.
.	.	.	.	.	.	.	.	8f#X/	.	.	.
.	.	.	.	.	.	.	.	8e/	.	.	.
.	.	.	.	.	.	.	.	2f#X/	.	.	.
0.G	-i.	0.G	-i.	0.d	-i.	0.b	-i.	0.g	-i.	0.dd	-i.
=39-	=39-	=39-	=39-	=39-	=39-	=39-	=39-	=39-	=39-	=39-	=39-
.	.	.	.	.	.	.	.	.	.	.	.
=-	=-	=-	=-	=-	=-	=-	=-	=-	=-	=-	=-
*-	*-	*-	*-	*-	*-	*-	*-	*-	*-	*-	*-
!!!system-decoration: [(s1,s2,s3,s4,s5,s6)]
!!!ENC: Mateusz Solarz
!!!END: 2022-06-14
!!!ENC: Urszula Świątek
!!!END: 2022-07-24
